X: 25398
T: March Of The Gaelic Order, The
R: jig
M: 6/8
K: Edorian
|:e|c3 cdc|BdG GAB|ABA Ad=c|BGB edB|cAc edc|BeB GFD|
EFE Eec|ABA AFD|E2 E Eec|A2 A AFD|EFE FGF|EFE E2:|
|:e|cdE Ace|BcB E^GB|cec Aec|BGB edB|cAc edc|BeB GFD|
EFE Eec|ABA AFD|E2 E Eec|A2 A AFD|EFE FGF|EFE E2:|

